images/why-lease-2.svg

<svg width="150" height="150" viewBox="0 0 150 150" fill="none" xmlns="http://www.w3.org/2000/svg">
<circle cx="75" cy="75" r="74.5" fill="white" stroke="#0066FF"/>
<path d="M82.746 61.6294L82.746 61.6296L82.7571 61.6356C82.9626 61.7479 83.1432 61.9005 83.2882 62.0843C83.4331 62.2682 83.5393 62.4794 83.6005 62.7053C83.6616 62.9311 83.6765 63.167 83.644 63.3988C83.6116 63.6305 83.5326 63.8534 83.4118 64.0538L83.4118 64.0538L83.4072 64.0617L70.3194 86.7062C70.3191 86.7068 70.3187 86.7074 70.3184 86.708C70.1592 86.9772 69.9328 87.2005 69.6615 87.3562C69.3895 87.5123 69.0816 87.595 68.768 87.5964L68.7583 87.5964L68.7487 87.5968C68.4481 87.6097 68.1505 87.5329 67.8938 87.3763L67.8871 87.3723L67.8804 87.3684C67.6768 87.2528 67.4982 87.098 67.3548 86.913C67.2114 86.728 67.1061 86.5165 67.045 86.2906C66.9838 86.0648 66.968 85.8291 66.9985 85.5971C67.029 85.3651 67.1051 85.1414 67.2226 84.939L67.223 84.9383L80.313 62.2899L80.3147 62.2869C80.4304 62.0835 80.5853 61.9049 80.7704 61.7616C80.9555 61.6183 81.1672 61.513 81.3932 61.4519C81.6193 61.3907 81.8552 61.3749 82.0874 61.4054C82.3196 61.4359 82.5435 61.512 82.746 61.6294ZM72.4504 68.7272L72.4497 68.7474L72.4505 68.7677C72.5344 70.7292 71.8366 72.6439 70.5101 74.092C69.1887 75.5346 67.3508 76.3968 65.3967 76.4915C63.4392 76.3967 61.5973 75.5353 60.27 74.0934C58.9376 72.6459 58.2318 70.7307 58.3064 68.7652L58.3071 68.7474L58.3065 68.7296C58.2412 66.7701 58.9511 64.8637 60.2825 63.4236C61.6088 61.9892 63.4453 61.1326 65.3967 61.0377C67.3446 61.1325 69.1771 61.99 70.4975 63.425C71.823 64.8657 72.525 66.7716 72.4504 68.7272ZM65.3393 72.9078L65.3968 72.9144L65.4543 72.9078C66.4602 72.7912 67.3805 72.2855 68.018 71.4989C68.645 70.7252 68.9493 69.7402 68.8689 68.749C68.9603 67.754 68.6596 66.7617 68.0296 65.9843C67.3891 65.194 66.4608 64.6904 65.4489 64.5842L65.3967 64.5788L65.3446 64.5842C64.331 64.6906 63.4002 65.1919 62.7539 65.9797C62.1169 66.7561 61.807 67.7492 61.8884 68.7489C61.8177 69.7449 62.1311 70.7308 62.7652 71.5036C63.4086 72.2878 64.3316 72.7912 65.3393 72.9078ZM78.2163 80.2384L78.2172 80.2182L78.2164 80.198C78.1418 78.2423 78.8438 76.3364 80.1693 74.8958C81.4897 73.4608 83.3223 72.6033 85.2701 72.5085C87.2215 72.6034 89.058 73.4599 90.3843 74.8944C91.7157 76.3344 92.4257 78.2408 92.3604 80.2004L92.3598 80.2182L92.3604 80.236C92.435 82.2014 91.7292 84.1167 90.3968 85.5642C89.0695 87.0061 87.2277 87.8675 85.2701 87.9623C83.316 87.8676 81.4781 87.0054 80.1567 85.5628C78.8302 84.1147 78.1324 82.1999 78.2163 80.2384ZM85.2125 84.3785L85.27 84.3852L85.3275 84.3786C86.3352 84.262 87.2583 83.7586 87.9016 82.9744C88.5357 82.2016 88.8491 81.2157 88.7784 80.2197C88.8599 79.2199 88.5499 78.2269 87.9129 77.4505C87.2666 76.6627 86.3358 76.1614 85.3223 76.055L85.2674 76.0493L85.2125 76.0556C84.2066 76.1722 83.2863 76.6779 82.6489 77.4645C82.0212 78.2389 81.717 79.2249 81.7982 80.2171C81.717 81.2092 82.0212 82.1952 82.6489 82.9697C83.2863 83.7563 84.2066 84.262 85.2125 84.3785Z" fill="#0066FF" stroke="#0066FF"/>
<path d="M75.3176 47.5139L75.3333 47.5144L75.3491 47.5139C82.7517 47.2809 89.9443 49.9937 95.3474 55.0565C100.746 60.1155 103.918 67.1078 104.166 74.5C103.918 81.8922 100.746 88.8845 95.3474 93.9435C89.9443 99.0063 82.7517 101.719 75.3491 101.486L75.3333 101.486L75.3176 101.486C67.915 101.719 60.7224 99.0063 55.3193 93.9435C49.9202 88.8845 46.7489 81.8922 46.5003 74.5C46.7489 67.1078 49.9202 60.1155 55.3193 55.0565C60.7224 49.9937 67.915 47.2809 75.3176 47.5139ZM50.0837 74.4796L50.0829 74.5L50.0837 74.5204C50.3468 80.9652 53.1529 87.0436 57.8881 91.4258C62.619 95.804 68.8906 98.1331 75.3333 97.9052C81.7761 98.1331 88.0477 95.804 92.7785 91.4258C97.5138 87.0436 100.32 80.9652 100.583 74.5204L100.584 74.5L100.583 74.4796C100.32 68.0348 97.5138 61.9564 92.7785 57.5742C88.0477 53.196 81.7761 50.8669 75.3333 51.0948C68.8906 50.8669 62.619 53.196 57.8881 57.5742C53.1529 61.9564 50.3468 68.0348 50.0837 74.4796Z" fill="#0066FF" stroke="#0066FF"/>
</svg>

<svg xmlns="http://www.w3.org/2000/svg" width="150" height="150" fill="none" viewBox="0 0 150 150"><circle cx="75" cy="75" r="74.5" fill="#fff" stroke="#06f"/><path fill="#06f" stroke="#06f" d="m82.746 61.63.011.006a1.74 1.74 0 0 1 .655 2.418l-.005.008L70.32 86.706v.002a1.81 1.81 0 0 1-1.551.888h-.02c-.3.014-.598-.063-.854-.22l-.007-.004-.007-.004a1.77 1.77 0 0 1-.657-2.429l13.09-22.65.002-.002a1.773 1.773 0 0 1 2.431-.658ZM72.45 68.726v.04a7.413 7.413 0 0 1-7.053 7.725 7.45 7.45 0 0 1-7.09-7.726v-.036a7.45 7.45 0 0 1 7.09-7.692 7.414 7.414 0 0 1 7.054 7.69Zm-7.11 4.18.057.007.057-.006a3.874 3.874 0 0 0 3.415-4.159 3.834 3.834 0 0 0-3.42-4.165l-.052-.005-.052.005a3.874 3.874 0 0 0-3.457 4.165 3.907 3.907 0 0 0 3.451 4.159Zm12.876 7.331.001-.02v-.02a7.413 7.413 0 0 1 7.053-7.69 7.46 7.46 0 0 1 7.09 7.692v.036a7.45 7.45 0 0 1-7.09 7.726 7.42 7.42 0 0 1-7.054-7.724Zm6.997 4.14.057.007.058-.006a3.91 3.91 0 0 0 3.45-4.16 3.87 3.87 0 0 0-3.456-4.164l-.055-.006-.054.007a3.874 3.874 0 0 0-3.415 4.161 3.87 3.87 0 0 0 3.415 4.162Z"/><path fill="#06f" stroke="#06f" d="M75.318 47.514h.031a27.96 27.96 0 0 1 19.998 7.542 27.93 27.93 0 0 1 8.819 19.444 27.93 27.93 0 0 1-8.819 19.444 27.96 27.96 0 0 1-19.998 7.542h-.031a27.96 27.96 0 0 1-19.999-7.543A27.93 27.93 0 0 1 46.5 74.5a27.93 27.93 0 0 1 8.82-19.443 27.96 27.96 0 0 1 19.998-7.543ZM50.084 74.48l-.001.02v.02a24.4 24.4 0 0 0 7.805 16.906 24.4 24.4 0 0 0 17.445 6.48 24.4 24.4 0 0 0 17.445-6.48 24.4 24.4 0 0 0 7.805-16.906l.001-.02-.001-.02a24.4 24.4 0 0 0-7.805-16.906 24.4 24.4 0 0 0-17.445-6.48 24.4 24.4 0 0 0-17.445 6.48 24.4 24.4 0 0 0-7.804 16.906Z"/></svg>
